X:1080
T:Astleys Hornpipe
A:Wyresdale, Lancashire
B:E and J Winder, 1835-41
L:1/8
M:4/4
N:in JGCW
O:England
Z:Richard Robinson 
%%TUNEURL: http://www.leeds.ac.uk/music/Info/RRTuneBk/gettune/00000610.html
%%ID:00000610
K:G
GABc dBGd | gfge edcB | cecA BdBG | ABcA GFED |
GABc dBGd | gfge edcB | cecA BdBG | G2F2 G4 ||
defg afdf | gage fafe | defg afdB | cecA BdBA |
GABc dBGd | gfge edcB | cecA BdBA | G2F2 G4 |]
%%newpage
%page 90
